data/zen-loop.svg

<svg width="33.67" height="15.75" viewBox="0 0 33.67 15.75" xmlns="http://www.w3.org/2000/svg"><path transform="translate(0 11.9) scale(.014 -.014)" d="m25 0q-10 0-10 9 0 4 2 10l242 650h-224q-10 0-10 11 0 10 10 10h239q10 0 10-8 0-3-2-9l-243-652h245q10 0 10-10 0-11-10-11z"/><path transform="translate(4.326 11.9) scale(.014 -.014)" d="m156-5q-34 0-60.5 31.5t-41 86.5-14.5 126 14.5 126 40 86 59.5 31q31 0 53.5-25.5t35-70 12.5-101.5q0-16-16-16h-176q-1-15-1-30 0-64 12-114.5t33.5-79.5 48.5-29q26 0 44.5 22t29.5 58q3 9 11 9 7 0 9-5.5t0-11.5q-14-43-37-68t-57-25zm-2 466q-34 0-58.5-48t-31.5-123h170q-2 73-23.5 122t-56.5 49z"/><path transform="translate(8.316 11.9) scale(.014 -.014)" d="m70 0q-10 0-10 10v457q0 10 10 10 11 0 11-10v-40q20 30 43 42.5t50 12.5q83 0 83-111v-361q0-10-11-10-10 0-10 10v361q0 49-16 69.5t-46 20.5q-31 0-54.5-18.5t-38.5-46.5v-386q0-10-11-10z"/><path transform="translate(15.974 11.9) scale(.014 -.014)" d="m70 0q-10 0-10 10v670q0 10 10 10 11 0 11-10v-659h226q10 0 10-10 0-11-10-11z"/><path transform="translate(20.832 11.9) scale(.014 -.014)" d="m154-5q-34 0-59.5 31t-40 86-14.5 127 14.5 126.5 40 85.5 59.5 31 59.5-31.5 40.5-86 15-125.5-15-126-40.5-86.5-59.5-31.5zm0 21q27 0 48 29t33 79.5 12 114.5-12 114-33 79-48 29q-26 0-47-29t-33-79-12-114 12-114.5 33-79.5 47-29z"/><path transform="translate(25.158 11.9) scale(.014 -.014)" d="m154-5q-34 0-59.5 31t-40 86-14.5 127 14.5 126.5 40 85.5 59.5 31 59.5-31.5 40.5-86 15-125.5-15-126-40.5-86.5-59.5-31.5zm0 21q27 0 48 29t33 79.5 12 114.5-12 114-33 79-48 29q-26 0-47-29t-33-79-12-114 12-114.5 33-79.5 47-29z"/><path transform="translate(29.484 11.9) scale(.014 -.014)" d="m154-5q-42 0-72 44v-216q0-10-11-10-10 0-10 10v611q-17-9-33-22-3-3-7-3-11 0-11 11 0 5 4 8 23 18 47 31v57q0 10 10 10 11 0 11-10v-48q34 14 62 14 60 0 87.5-64t27.5-179q0-71-11.5-126t-35-86.5-58.5-31.5zm-10 466q-27 0-62-16v-371q13-28 33-43t39-15q28 0 46.5 29t27.5 79.5 9 114.5q0 104-21.5 163t-71.5 59z"/></svg>

<?xml version="1.0" encoding="utf-8" ?>
<svg baseProfile="tiny" height="100%" version="1.2" width="100%" xmlns="http://www.w3.org/2000/svg" xmlns:ev="http://www.w3.org/2001/xml-events" xmlns:xlink="http://www.w3.org/1999/xlink"><defs /><g><path d="M25 0Q15 0 15 9Q15 13 17 19L259 669H35Q25 669 25 680Q25 690 35 690H274Q284 690 284 682Q284 679 282 673L39 21H284Q294 21 294 11Q294 0 284 0Z" transform="translate(0.0, 72) scale(0.072, -0.072)" /><path d="M156 -5Q122 -5 95.5 26.5Q69 58 54.5 113.0Q40 168 40 239Q40 310 54.5 365.0Q69 420 94.5 451.0Q120 482 154 482Q185 482 207.5 456.5Q230 431 242.5 386.5Q255 342 255 285Q255 269 239 269H63Q62 254 62 239Q62 175 74.0 124.5Q86 74 107.5 45.0Q129 16 156 16Q182 16 200.5 38.0Q219 60 230 96Q233 105 241 105Q248 105 250.0 99.5Q252 94 250 88Q236 45 213.0 20.0Q190 -5 156 -5ZM154 461Q120 461 95.5 413.0Q71 365 64 290H234Q232 363 210.5 412.0Q189 461 154 461Z" transform="translate(22.247999999999998, 72) scale(0.072, -0.072)" /><path d="M70 0Q60 0 60 10V467Q60 477 70 477Q81 477 81 467V427Q101 457 124.0 469.5Q147 482 174 482Q257 482 257 371V10Q257 0 246 0Q236 0 236 10V371Q236 420 220.0 440.5Q204 461 174 461Q143 461 119.5 442.5Q96 424 81 396V10Q81 0 70 0Z" transform="translate(42.768, 72) scale(0.072, -0.072)" /><path d="M70 0Q60 0 60 10V680Q60 690 70 690Q81 690 81 680V21H307Q317 21 317 11Q317 0 307 0Z" transform="translate(82.152, 72) scale(0.072, -0.072)" /><path d="M154 -5Q120 -5 94.5 26.0Q69 57 54.5 112.0Q40 167 40 239Q40 311 54.5 365.5Q69 420 94.5 451.0Q120 482 154 482Q188 482 213.5 450.5Q239 419 254.0 364.5Q269 310 269 239Q269 168 254.0 113.0Q239 58 213.5 26.5Q188 -5 154 -5ZM154 16Q181 16 202.0 45.0Q223 74 235.0 124.5Q247 175 247 239Q247 303 235.0 353.0Q223 403 202.0 432.0Q181 461 154 461Q128 461 107.0 432.0Q86 403 74.0 353.0Q62 303 62 239Q62 175 74.0 124.5Q86 74 107.0 45.0Q128 16 154 16Z" transform="translate(107.136, 72) scale(0.072, -0.072)" /><path d="M154 -5Q120 -5 94.5 26.0Q69 57 54.5 112.0Q40 167 40 239Q40 311 54.5 365.5Q69 420 94.5 451.0Q120 482 154 482Q188 482 213.5 450.5Q239 419 254.0 364.5Q269 310 269 239Q269 168 254.0 113.0Q239 58 213.5 26.5Q188 -5 154 -5ZM154 16Q181 16 202.0 45.0Q223 74 235.0 124.5Q247 175 247 239Q247 303 235.0 353.0Q223 403 202.0 432.0Q181 461 154 461Q128 461 107.0 432.0Q86 403 74.0 353.0Q62 303 62 239Q62 175 74.0 124.5Q86 74 107.0 45.0Q128 16 154 16Z" transform="translate(129.384, 72) scale(0.072, -0.072)" /><path d="M154 -5Q112 -5 82 39V-177Q82 -187 71 -187Q61 -187 61 -177V434Q44 425 28 412Q25 409 21 409Q10 409 10 420Q10 425 14 428Q37 446 61 459V516Q61 526 71 526Q82 526 82 516V468Q116 482 144 482Q204 482 231.5 418.0Q259 354 259 239Q259 168 247.5 113.0Q236 58 212.5 26.5Q189 -5 154 -5ZM144 461Q117 461 82 445V74Q95 46 115.0 31.0Q135 16 154 16Q182 16 200.5 45.0Q219 74 228.0 124.5Q237 175 237 239Q237 343 215.5 402.0Q194 461 144 461Z" transform="translate(151.63199999999998, 72) scale(0.072, -0.072)" /></g></svg>
